X: 25802
T: Mason's Apron, The
R: reel
M: 4/4
K: Amajor
|:afe2 cAB2|AFEF ABc2|BAF (3BBB c (3BBB|BcBc eaga|
fe2c AB2A|FEFA Bc2B|Adcd efga|fecB cA3:|
|:Bc2e cfce|cc2e cfce|cd2f d=gdf|cd2f d=gdf|
dc2e cfce|cc2e cfce|cdcd efga|fecB cA3:|

